X: 16
M: 6/8
L: 1/8
K: C
ceg gec | abc' bag | abc' gec | dec BAG |\
ceg gec | abc' bag | c'ba gc'e | (ef).d c2 :: c |\
dBG GBd |
(de).f Te2d | ece geg | (c'b).a Ta2g |\
abc' gec | dec BAG | ceg gec | abc' bag |\
c'ba gc'e | (ef).d c2 :|


